mobile/24/svg/pin-slash-24.svg

<svg width="24" height="24" viewBox="0 0 24 24" fill="none" xmlns="http://www.w3.org/2000/svg">
<path d="M1.99976 10.9333L10.9333 1.99976L12.1714 3.23789L10.7805 4.62878L13.574 7.42307L12.337 8.66107L9.54259 5.86669L5.86674 9.54254L8.66202 12.337L7.42402 13.575L4.62874 10.7805L3.23789 12.1714L1.99976 10.9333Z" fill="black"/>
<path fill-rule="evenodd" clip-rule="evenodd" d="M12.163 19.328L15.126 16.365L20.7608 21.9999L21.999 20.7618L16.3641 15.1269L19.33 12.161C19.943 11.547 20.123 10.666 19.8 9.86003C19.477 9.05403 18.736 8.54403 17.869 8.52403L17.0953 8.50688L21.6147 3.98774L20.3773 2.75027L14.674 8.45321L14.666 8.45303L13.398 9.72103L13.402 9.7251L9.72595 13.401L9.72198 13.397L8.45398 14.665L8.45415 14.6727L2.11426 21.0123L3.35166 22.2497L8.50782 17.0939L8.52498 17.868C8.54498 18.735 9.05598 19.474 9.86198 19.798C10.127 19.904 10.399 19.956 10.668 19.956C11.218 19.956 11.751 19.739 12.163 19.328ZM10.2207 15.3811L10.275 17.829C10.28 18.048 10.426 18.14 10.513 18.174C10.602 18.21 10.77 18.244 10.924 18.09L18.091 10.923C18.246 10.769 18.21 10.6 18.175 10.512C18.141 10.425 18.049 10.279 17.83 10.274L15.3823 10.2197L10.2207 15.3811Z" fill="black"/>
</svg>

<svg width="24" height="24" fill="none" xmlns="http://www.w3.org/2000/svg"><path d="M2 10.933 10.933 2l1.238 1.238-1.39 1.39 2.793 2.795-1.237 1.238-2.794-2.794-3.676 3.676 2.795 2.794-1.238 1.238-2.795-2.794-1.391 1.39L2 10.933z" fill="#000"/><path fill-rule="evenodd" clip-rule="evenodd" d="m12.163 19.328 2.963-2.963L20.761 22l1.238-1.238-5.635-5.635 2.966-2.966a2.103 2.103 0 0 0 .47-2.301 2.102 2.102 0 0 0-1.931-1.336l-.774-.017 4.52-4.52-1.238-1.237-5.703 5.703h-.008l-1.268 1.268.004.004-3.676 3.676-.004-.004-1.268 1.268v.008l-6.34 6.34 1.238 1.237 5.156-5.156.017.774c.02.867.531 1.606 1.337 1.93a2.108 2.108 0 0 0 2.301-.47zm-1.942-3.947.054 2.448a.362.362 0 0 0 .238.345c.089.036.257.07.411-.084l7.167-7.167a.362.362 0 0 0 .084-.411.362.362 0 0 0-.345-.238l-2.448-.054-5.161 5.161z" fill="#000"/></svg>
